X:1
T:Scully Casey's
M:12/8
L:1/8
S:L Nugent's Two-For-Two, Track #2
Z:anscribed by Ed Wosika
K:EDor
|:G2E FED BEE BEF|1 G2G AGA Bze dBA|2 G2G AFD FED E2:|
|: F| G2G AGA Bze dBA| Bcd e2e efe dBA| Bef gfe dBd AGF| B2E FED BEE E2:|
